X:1
T:Title
%%score { 1 | ( 2 3 ) }
L:1/8
Q:1/4=108
M:4/4
K:Eb
V:1 treble nm="Grand Piano"
V:2 bass 
V:3 bass 
V:1
 [EB]2 [F,DF]>[G,G] [FA]>F D>F | E8 | E2 D>C D2 C2 | B,8 | B2 G>B A4 | A2 F>A G4 | G2 E>G F2 =E2 | %7
w: ?????~???? * * * * * *|||||||
 [DF]3 G/A/ B4 | [B,GB]2 [EGe]>[DGd] [EGe]>[CGc] [B,GB]2 | [B,GB]2 [CGc]>B c>B G2 | %10
w: |||
 G2 B>A G2 [F,DF]2 | [A,DF]2 [G,G]>A B>c B2 | [B,GB]2 [EGe]>[DGd] [EGe]>[CGc] [B,GB]2 | %13
w: |||
 [B,GB]2 [CGc]>B c>B G2 | G2 B>A G2 [F,DF]2 |[M:9/8] [A,DF]2 [A,A]- [A,A]/[G,G]<[F,D]F/ E3 |] %16
w: |||
V:2
 E,G, B,,>B,, [B,,A,]2 [B,,F,B,]2 | [E,G,B,]8 | [E,G,B,]2 [B,,F,B,]2 [B,,A,B,]2 [E,A,]2 | %3
 [B,,D,]8 | [G,B,E]2 z2 [A,CE]4 | [A,CE]2 z2 [E,G,B,]4 | [E,G,B,]2 z2 [B,,A,B,]2 [=E,G,_D]2 | %7
 [B,,A,]4 [E,G,E]4 | E,2 E,>E, E,>E, E,2 | E,2 z z/[K:treble] [B,G]/ [CG]>[B,G][K:bass] [E,B,E]2 | %10
 [G,E]2 [B,E]>A, G,>[K:treble]B[K:bass] B,,2 | B,,2 z z/ A,/ B,>C [E,G,E]2 | E,2 E,>E, E,>E, E,2 | %13
 E,2 z z/[K:treble] [B,G]/ [CG]>[B,G][K:bass] [E,B,E]2 | %14
 [G,E]2 [B,E]>A, G,>[K:treble]B[K:bass] B,,2 |[M:9/8] B,,2 B,,- B,,/B,,<B,,F,/ [E,G,B,]3 |] %16
V:3
 x8 | x8 | x8 | x8 | x8 | x8 | x8 | x8 | x8 | z2 E,4[K:treble][K:bass] z2 | %10
 E,6[K:treble][K:bass] z2 | z2 E,4 z2 | x8 | z2 E,4[K:treble][K:bass] z2 | %14
 E,6[K:treble][K:bass] z2 |[M:9/8] x9 |] %16

